images_elementary_svg/cmd/sc_starshapes.horizontal-scroll.svg

<svg viewBox="0 0 16 16" xmlns="http://www.w3.org/2000/svg" xmlns:xlink="http://www.w3.org/1999/xlink"><linearGradient id="a" gradientTransform="matrix(.28571361 0 0 .30419701 -17.162212 -5.46231)" gradientUnits="userSpaceOnUse" x1="25.132275" x2="25.132275" y1=".985206" y2="47.013336"><stop offset="0" stop-color="#f4f4f4"/><stop offset="1" stop-color="#dbdbdb"/></linearGradient><linearGradient id="b" gradientUnits="userSpaceOnUse" x1="10" x2="9" xlink:href="#a" y1="1" y2="14"/><linearGradient id="c" gradientUnits="userSpaceOnUse" x1="4" x2="4" xlink:href="#a" y1="0" y2="16"/><linearGradient id="d" gradientTransform="matrix(.25378586 0 0 .30501865 19.128979 -.685477)" gradientUnits="userSpaceOnUse" x1="9.130013" x2="11" y1="52.896881" y2="0"><stop offset="0" stop-opacity=".339506"/><stop offset="1" stop-opacity=".246914"/></linearGradient><linearGradient id="e" gradientTransform="matrix(.24324324 0 0 .35135133 2.162164 -.432428)" gradientUnits="userSpaceOnUse" x1="9.572017" x2="10.278719" y1="12.084909" y2="34.769234"><stop offset="0" stop-color="#fff"/><stop offset=".07299305" stop-color="#fff" stop-opacity=".235294"/><stop offset="1" stop-color="#fff" stop-opacity=".156863"/><stop offset="1" stop-color="#fff" stop-opacity=".392157"/></linearGradient>

/&amp;amp;gt;<g fill="url(#b)"><path d="m13.625.5c-1.035563 0-1.875.9644375-1.875 2h-7.5-1.875c-1.0387594 0-1.875.71125-1.875 1.75v9.25c0 1.035563.8394375 2 1.875 2s1.875-.964437 1.875-2h8.4375.9375c1.03876 0 1.875-.71125 1.875-1.75v-9.25c0-1.0355625-.839438-2-1.875-2z" fill="url(#c)" stroke="url(#d)"/><path d="m13.751953.98046875c-.825421-.01157796-1.715653.89453125-1.488281 2.01953125h-10.263672c-.4876307.1733862-.855402.466003-.9824219 1h-.0175781v8 .308594.691406c-.31968479 2.194741 2.7097362 3.253551 2.7460938 0h10.2539062c.817356-.322077.836264-.662723 1-1v-9c-.003544-1.4459933-.606053-2.01052617-1.248047-2.01953125zm-.751953 2.01953125h1v1 8h-11v1h-1v-1-2-6h11z" fill="url(#e)"/></g></svg>

<?xml version="1.0" encoding="UTF-8" standalone="no"?>
<svg
   xmlns:dc="http://purl.org/dc/elements/1.1/"
   xmlns:cc="http://creativecommons.org/ns#"
   xmlns:rdf="http://www.w3.org/1999/02/22-rdf-syntax-ns#"
   xmlns:svg="http://www.w3.org/2000/svg"
   xmlns="http://www.w3.org/2000/svg"
   xmlns:xlink="http://www.w3.org/1999/xlink"
   xmlns:sodipodi="http://sodipodi.sourceforge.net/DTD/sodipodi-0.dtd"
   xmlns:inkscape="http://www.inkscape.org/namespaces/inkscape"
   viewBox="0 0 16 16"
   version="1.1"
   id="svg29"
   sodipodi:docname="sc_starshapes.horizontal-scroll.svg"
   inkscape:version="0.92.3 (unknown)"><metadata
   id="metadata35">
  <rdf:RDF>
    <cc:Work
       rdf:about="">
      <dc:format>image/svg+xml</dc:format>
      <dc:type
         rdf:resource="http://purl.org/dc/dcmitype/StillImage" />
    </cc:Work>
  </rdf:RDF>
</metadata>
<defs
   id="defs33" />
<sodipodi:namedview
   pagecolor="#ffffff"
   bordercolor="#666666"
   borderopacity="1"
   objecttolerance="10"
   gridtolerance="10"
   guidetolerance="10"
   inkscape:pageopacity="0"
   inkscape:pageshadow="2"
   inkscape:window-width="1366"
   inkscape:window-height="706"
   id="namedview31"
   showgrid="false"
   inkscape:zoom="14.75"
   inkscape:cx="3.8336024"
   inkscape:cy="5.9109472"
   inkscape:window-x="0"
   inkscape:window-y="0"
   inkscape:window-maximized="1"
   inkscape:current-layer="svg29" />
<linearGradient
   id="a"
   gradientTransform="matrix(.28571361 0 0 .30419701 -17.162212 -5.46231)"
   gradientUnits="userSpaceOnUse"
   x1="25.132275"
   x2="25.132275"
   y1=".985206"
   y2="47.013336">
  <stop
     offset="0"
     stop-color="#f4f4f4"
     id="stop2" />
  <stop
     offset="1"
     stop-color="#dbdbdb"
     id="stop4" />
</linearGradient>
<linearGradient
   id="b"
   gradientUnits="userSpaceOnUse"
   x1="10"
   x2="9"
   xlink:href="#a"
   y1="1"
   y2="14" />
<linearGradient
   id="c"
   gradientUnits="userSpaceOnUse"
   x1="4"
   x2="4"
   xlink:href="#a"
   y1="0"
   y2="16" />
<linearGradient
   id="d"
   gradientTransform="matrix(.25378586 0 0 .30501865 19.128979 -.685477)"
   gradientUnits="userSpaceOnUse"
   x1="9.1300125"
   x2="11"
   y1="52.896881"
   y2="0">
  <stop
     offset="0"
     stop-opacity=".339506"
     id="stop9" />
  <stop
     offset="1"
     stop-opacity=".246914"
     id="stop11" />
</linearGradient>
<linearGradient
   id="e"
   gradientTransform="matrix(.24324324 0 0 .35135133 2.162164 -.432428)"
   gradientUnits="userSpaceOnUse"
   x1="9.5720167"
   x2="10.278719"
   y1="12.084909"
   y2="34.769234">
  <stop
     offset="0"
     stop-color="#fff"
     id="stop14" />
  <stop
     offset=".07299305"
     stop-color="#fff"
     stop-opacity=".235294"
     id="stop16" />
  <stop
     offset="1"
     stop-color="#fff"
     stop-opacity=".156863"
     id="stop18" />
  <stop
     offset="1"
     stop-color="#fff"
     stop-opacity=".392157"
     id="stop20" />
</linearGradient>

/&amp;gt;<g
   id="g27"
   style="fill:url(#b)">
  <path
     d="m 13.625,0.5 c -1.035563,0 -1.875,0.9644375 -1.875,2 H 4.25 2.375 C 1.3362406,2.5 0.5,3.21125 0.5,4.25 v 9.25 c 0,1.035563 0.8394375,2 1.875,2 1.0355625,0 1.875,-0.964437 1.875,-2 h 8.4375 0.9375 c 1.03876,0 1.875,-0.71125 1.875,-1.75 V 2.5 c 0,-1.0355625 -0.839438,-2 -1.875,-2 z"
     id="path23"
     inkscape:connector-curvature="0"
     style="fill:url(#c);stroke:url(#d)" />
  <path
     d="M 13.751953,0.98046875 C 12.926532,0.96889079 12.0363,1.875 12.263672,3 H 2 C 1.5123693,3.1733862 1.144598,3.466003 1.0175781,4 H 1 V 12 12.308594 13 c -0.31968479,2.194741 2.7097362,3.253551 2.7460938,0 H 14 c 0.817356,-0.322077 0.836264,-0.662723 1,-1 V 3 C 14.996456,1.5540067 14.393947,0.98947383 13.751953,0.98046875 Z M 13,3 h 1 v 1 8 H 3 v 1 H 2 V 12 10 4 h 11 z"
     id="path25"
     inkscape:connector-curvature="0"
     style="fill:url(#e)" />
</g>
</svg>
